**kern
*I"Piano, MIDI
*clefG2
*k[]
*M4/4
*MM96
=1
1r
=2
*k[b-e-a-d-g-c-]
1r
=3
1r
=4
1r
=5
2r
2r
=6
4r
4r
2r
=7
1r
=8
1r
=9
2r
4r
8B-L
8d-J
=10
4e-
8g-L
[8a-J
8a-L]
8f
8d-
8c-J
=11
8B-L
8d-
8f
8g-J
4r
8g-L
8fJ
=12
4e-
4g-
8fL
8d-
8d-
[8d-J
=13
2d-]
4r
8B-L
8d-J
=14
4e-
8g-L
[8a-J
8a-L]
8f
8d-
8c-J
=15
8B-L
8d-
8f
8g-J
4r
8g-L
8fJ
=16
4e-
4g-
8fL
8d-
8d-
[8e-J
=17
2e-]
4r
8e-L
8fJ
=18
4.g-
8f
8e-L
8fJ
4g-
=19
8r
8fL
8e-
8fJ
8g-L
8f
8d-
8e-J
=20
8d-L
8G-
8G-
8e-J
8d-L
8G-
8A-
8A-J
=21
2B-
4r
8e-L
8fJ
=22
4.g-
8f
8e-L
8fJ
4g-
=23
8r
8fL
8e-
8fJ
8g-L
8a-
8b-
8cc-J
=24
8g-L
8g-
8g-
8b-J
8a-L
8g-J
[4g-
=25
2g-]
4r
8b-L
16dd-L
16b-JJ
=26
8a-L
8g-J
16e-KL
8g-
[16a-Jk
4a-]
8b-L
16dd-L
16b-JJ
=27
8a-L
8g-J
16e-KL
8g-
[16g-Jk
4g-]
8b-L
16dd-L
16b-JJ
=28
4a-'
16b-KL
8dd-
[16dd-Jk
16dd-LL]
16dd-J
8ee-J
16dd-LL
16cc-J
[8b-J
=29
2b-]
4r
8b-L
16dd-L
16b-JJ
=30
8a-L
8g-J
16e-KL
8g-
[16a-Jk
4a-]
8b-L
16dd-L
16b-JJ
=31
8a-L
8g-J
16e-KL
8g-
[16g-Jk
4g-]
16g-LL
16f
16e-
16fJJ
=32
4e-
4a-
8fL
8e-
8f
[8fJ
=33
8f]
[4.g-
8g-]
8r
4r
=34
1r
=35
1r
=36
1r
=37
1r
=38
2g-
8r
4.a-
=39
2b-
8r
4.a-
=40
2g-
8r
4.a-
=41
2b-
8r
4.a-
=42
2g-
8r
4.a-
=43
2b-
8r
4.a-
=44
2g-
8r
4.a-
=45
2b-
8r
4.a-
=46
2g-
8r
4.a-
=47
2b-
8r
4.a-
=48
2g-
8r
4.a-
=49
2b-
8r
4.b-
=50
8g-L
8g-
8g-
8g-J
8g-L
8a-
8a-
8a-J
=51
8b-L
8b-
8b-
8b-J
8b-L
8a-
8a-
8a-J
=52
8g-L
8g-
8g-
8g-J
8g-L
8a-
8a-
8a-J
=53
4g-
4g-
4g-
4g-
=54
4g-
4g-
4g-
4g-
=55
4a-
4a-
4a-
4a-
=56
2r
4r
8b-L
16dd-L
16b-JJ
=57
8a-L
8g-J
16e-KL
8g-
[16a-Jk
4a-]
8b-L
16dd-L
16b-JJ
=58
8a-L
8g-J
16e-KL
8g-
[16g-Jk
4g-]
8b-L
16dd-L
16b-JJ
=59
4a-'
16b-KL
8dd-
[16dd-Jk
16dd-LL]
16dd-J
8ee-J
16dd-LL
16cc-J
[8b-J
=60
2b-]
4r
8b-L
16dd-L
16b-JJ
=61
8a-L
8g-J
16e-KL
8g-
[16a-Jk
4a-]
8b-L
16dd-L
16b-JJ
=62
8a-L
8g-J
16e-KL
8g-
[16g-Jk
4g-]
16g-LL
16f
16e-
16fJJ
=63
4e-
4a-
8fL
8d-
8B-
[8fJ
=64
8f]
[4.g-
8g-]
8r
4r
=65
8r
8dd-
16b-LL
16a-
16g-
16a-JJ
2a-
=66
8r
8dd-
16b-LL
16a-
16g-
16a-JJ
2a-
=67
8r
8dd-
16b-LL
16a-
16g-
16a-JJ
2a-
=68
8r
8ee-
16dd-LL
16cc-
16b-
16dd-JJ
2dd-
=69
8r
8dd-
16b-LL
16a-
16g-
16a-JJ
2a-
=70
8r
8dd-
16b-LL
16a-
16g-
16a-JJ
2a-
=71
8r
8dd-
16b-LL
16a-
16g-
16a-JJ
8a-L
16fL
16a-JJ
8b-L
8cc-J
=72
8a-
[4.a-
8.a-]
16r
4r
=73
1r
=74
1r
=75
1r
=76
2r
4r
8B-L
8d-J
=77
4e-
8g-L
[8a-J
8a-L]
8f
8d-
8c-J
=78
8B-L
8d-
8f
8g-J
4r
8g-L
8fJ
=79
4e-
4g-
8fL
8d-
8d-
[8d-J
=80
2d-]
4r
8B-L
8d-J
=81
4e-
8g-L
[8a-J
8a-L]
8f
8d-
8c-J
=82
8B-L
8d-
8f
8g-J
4r
8g-L
8fJ
=83
4e-
4g-
8fL
8d-
8d-
[8e-J
=84
2e-]
4r
8b-L
16dd-L
16b-JJ
=85
8a-L
8g-J
16e-KL
8g-
[16a-Jk
4a-]
8b-L
16dd-L
16b-JJ
=86
8a-L
8g-J
16e-KL
8g-
[16g-Jk
4g-]
8b-L
16dd-L
16b-JJ
=87
4a-'
16b-KL
8dd-
[16dd-Jk
16dd-LL]
16dd-J
8ee-J
16dd-LL
16cc-J
[8b-J
=88
2b-]
4r
8b-L
16dd-L
16b-JJ
=89
8a-L
8g-J
16e-KL
8g-
[16a-Jk
4a-]
8b-L
16dd-L
16b-JJ
=90
8a-L
8g-J
16d-KL
8g-
[16g-Jk
4g-]
16g-LL
16f
16e-
16fJJ
=91
4e-
4a-
8fL
8e-
8f
[8fJ
=92
8f]
[4.g-
8g-]
8r
4r
=93
4e-
16d-LL
16e-J
8g-J
4a-
4b-
=94
4g-
16b-LL
16a-J
8g-J
4a-
4dd-
=95
4b-
16g-LL
16fJ
8d-J
4e-
8d-L
8B-J
=96
2d-
2r
=97
4e-
16d-LL
16e-J
8g-J
4a-
4b-
=98
4g-
16b-LL
16a-J
8g-J
4a-
4dd-
=99
4.ee-
8b-
4.a-
16g-LL
16a-JJ
=100
4.b-
8a-
2g-
==
*-
